humanity-icon-theme/Humanity/actions/128/process-stop.svg

<?xml version="1.0" encoding="UTF-8" standalone="no"?>
<!-- Created with Inkscape (http://www.inkscape.org/) -->

<svg
   xmlns:dc="http://purl.org/dc/elements/1.1/"
   xmlns:cc="http://creativecommons.org/ns#"
   xmlns:rdf="http://www.w3.org/1999/02/22-rdf-syntax-ns#"
   xmlns:svg="http://www.w3.org/2000/svg"
   xmlns="http://www.w3.org/2000/svg"
   xmlns:xlink="http://www.w3.org/1999/xlink"
   xmlns:sodipodi="http://sodipodi.sourceforge.net/DTD/sodipodi-0.dtd"
   xmlns:inkscape="http://www.inkscape.org/namespaces/inkscape"
   width="128"
   height="128"
   id="svg3767"
   version="1.1"
   inkscape:version="0.47 r22583"
   sodipodi:docname="process-stop.svg">
  <defs
     id="defs3769">
    <linearGradient
       inkscape:collect="always"
       xlink:href="#linearGradient3718"
       id="linearGradient3724"
       x1="64.5"
       y1="-26.999998"
       x2="64.5"
       y2="24"
       gradientUnits="userSpaceOnUse" />
    <linearGradient
       inkscape:collect="always"
       id="linearGradient3718">
      <stop
         style="stop-color:#ffffff;stop-opacity:1;"
         offset="0"
         id="stop3720" />
      <stop
         style="stop-color:#f0f0f0;stop-opacity:1"
         offset="1"
         id="stop3722" />
    </linearGradient>
    <linearGradient
       x1="63.397362"
       y1="-12.489107"
       x2="63.397362"
       y2="5.4675598"
       id="linearGradient2407"
       xlink:href="#linearGradient4873"
       gradientUnits="userSpaceOnUse"
       gradientTransform="matrix(5.64345,0,0,5.6429422,-286.50588,19.30933)" />
    <linearGradient
       id="linearGradient4873">
      <stop
         id="stop4875"
         style="stop-color:#ffffff;stop-opacity:1"
         offset="0" />
      <stop
         id="stop4877"
         style="stop-color:#ffffff;stop-opacity:0"
         offset="1" />
    </linearGradient>
    <radialGradient
       cx="23.895569"
       cy="3.9900031"
       r="20.397499"
       fx="23.895569"
       fy="3.9900031"
       id="radialGradient2410"
       xlink:href="#linearGradient3242"
       gradientUnits="userSpaceOnUse"
       gradientTransform="matrix(0,6.102135,-8.0552513,0,96.659483,-202.25671)" />
    <linearGradient
       id="linearGradient3242">
      <stop
         id="stop3244"
         style="stop-color:#f8b17e;stop-opacity:1"
         offset="0" />
      <stop
         id="stop3246"
         style="stop-color:#e35d4f;stop-opacity:1"
         offset="0.26238" />
      <stop
         id="stop3248"
         style="stop-color:#c6262e;stop-opacity:1"
         offset="0.66093999" />
      <stop
         id="stop3250"
         style="stop-color:#690b54;stop-opacity:1"
         offset="1" />
    </linearGradient>
    <linearGradient
       x1="18.379412"
       y1="44.980297"
       x2="18.379412"
       y2="3.0816143"
       id="linearGradient2412"
       xlink:href="#linearGradient2490"
       gradientUnits="userSpaceOnUse"
       gradientTransform="matrix(2.5569423,0,0,2.5567709,3.1523875,-61.864612)" />
    <linearGradient
       id="linearGradient2490">
      <stop
         id="stop2492"
         style="stop-color:#791235;stop-opacity:1"
         offset="0" />
      <stop
         id="stop2494"
         style="stop-color:#dd3b27;stop-opacity:1"
         offset="1" />
    </linearGradient>
    <linearGradient
       id="linearGradient8838">
      <stop
         id="stop8840"
         style="stop-color:#000000;stop-opacity:1"
         offset="0" />
      <stop
         id="stop8842"
         style="stop-color:#000000;stop-opacity:0"
         offset="1" />
    </linearGradient>
    <radialGradient
       r="10.625"
       fy="4.625"
       fx="62.625"
       cy="4.625"
       cx="62.625"
       gradientTransform="matrix(5.7750605,0,0,2.0085789,-297.14415,30.222906)"
       gradientUnits="userSpaceOnUse"
       id="radialGradient3765"
       xlink:href="#linearGradient8838"
       inkscape:collect="always" />
  </defs>
  <sodipodi:namedview
     id="base"
     pagecolor="#ffffff"
     bordercolor="#666666"
     borderopacity="1.0"
     inkscape:pageopacity="0.0"
     inkscape:pageshadow="2"
     inkscape:zoom="5.5"
     inkscape:cx="32"
     inkscape:cy="32"
     inkscape:current-layer="layer1"
     showgrid="true"
     inkscape:document-units="px"
     inkscape:grid-bbox="true"
     inkscape:window-width="603"
     inkscape:window-height="479"
     inkscape:window-x="417"
     inkscape:window-y="169"
     inkscape:window-maximized="0" />
  <metadata
     id="metadata3772">
    <rdf:RDF>
      <cc:Work
         rdf:about="">
        <dc:format>image/svg+xml</dc:format>
        <dc:type
           rdf:resource="http://purl.org/dc/dcmitype/StillImage" />
        <dc:title></dc:title>
      </cc:Work>
    </rdf:RDF>
  </metadata>
  <g
     id="layer1"
     inkscape:label="Layer 1"
     inkscape:groupmode="layer"
     transform="translate(0,64)">
    <path
       d="m 125.87901,39.5126 c 0,11.7864 -27.471807,21.34118 -61.36001,21.34118 -33.888198,0 -61.3600168,-9.55478 -61.3600168,-21.34118 0,-11.786422 27.4718188,-21.341187 61.3600168,-21.341187 33.888203,0 61.36001,9.554765 61.36001,21.341187 l 0,0 z"
       id="path8836"
       style="opacity:0.5;fill:url(#radialGradient3765);fill-opacity:1;fill-rule:evenodd;stroke:none;stroke-width:1;marker:none;visibility:visible;display:inline;overflow:visible" />
    <path
       d="m 64.519014,-52.516424 c -28.701626,0 -52.017803,23.314603 -52.017803,52.014306 0,28.699691 23.316177,52.014288 52.017803,52.014288 28.701614,0 52.017826,-23.314597 52.017796,-52.014288 0,-28.699703 -23.316182,-52.014306 -52.017796,-52.014306 z"
       id="path2555"
       style="fill:url(#radialGradient2410);fill-opacity:1;stroke:url(#linearGradient2412);stroke-width:0.99915248;stroke-linecap:round;stroke-linejoin:round;stroke-miterlimit:4;stroke-opacity:1;stroke-dasharray:none;stroke-dashoffset:0" />
    <path
       d="M 115.5,-0.504 C 115.5,26.752953 93.199766,50.73741 64.519635,50.5 35.007083,50.25468 13.845569,26.750522 13.5,-0.504 13.143881,-28.590618 36.786661,-51.618706 64.519635,-51.5 91.775038,-51.383338 115.5,-29.54027 115.5,-0.504 l 0,0 z"
       id="path8655"
       style="opacity:0.4;fill:none;stroke:url(#linearGradient2407);stroke-width:0.99915248;stroke-miterlimit:4;stroke-opacity:1;stroke-dasharray:none" />
    <path
       d="M 47.048172,-27.999998 39,-19.951826 55.604651,-3.431894 c 0.510117,0.516547 0.510117,1.347243 0,1.863787 L 39,14.951827 47.048172,23 63.568106,6.480066 c 0.516548,-0.510117 1.34724,-0.510117 1.863788,0 L 81.951828,23 90,14.951827 73.480067,-1.568107 c -0.510117,-0.516544 -0.510117,-1.34724 0,-1.863787 L 90,-19.951826 l -8.048172,-8.048172 -16.519934,16.51993 c -0.516548,0.51012 -1.34724,0.51012 -1.863788,0 l -16.519934,-16.51993 z"
       id="path3256-4"
       style="fill:#a9262e;fill-opacity:1;fill-rule:evenodd;stroke:none" />
    <path
       d="M 47.048172,-26.999998 39,-18.951826 55.604651,-2.431894 c 0.510117,0.516547 0.510117,1.347243 0,1.863787 L 39,15.951827 47.048172,24 63.568106,7.480066 c 0.516548,-0.510117 1.34724,-0.510117 1.863788,0 L 81.951828,24 90,15.951827 73.480067,-0.568107 c -0.510117,-0.516544 -0.510117,-1.34724 0,-1.863787 L 90,-18.951826 l -8.048172,-8.048172 -16.519934,16.51993 c -0.516548,0.51012 -1.34724,0.51012 -1.863788,0 l -16.519934,-16.51993 z"
       id="path3256"
       style="fill:url(#linearGradient3724);fill-opacity:1;fill-rule:evenodd;stroke:none" />
  </g>
</svg>

<?xml version="1.0" encoding="UTF-8" standalone="no"?>
<!-- Created with Inkscape (http://www.inkscape.org/) -->
<svg id="svg3767" xmlns:rdf="http://www.w3.org/1999/02/22-rdf-syntax-ns#" xmlns="http://www.w3.org/2000/svg" height="128" width="128" version="1.1" xmlns:cc="http://creativecommons.org/ns#" xmlns:xlink="http://www.w3.org/1999/xlink" xmlns:dc="http://purl.org/dc/elements/1.1/">
 <defs id="defs3769">
  <linearGradient id="linearGradient3724" y2="24" gradientUnits="userSpaceOnUse" x2="64.5" y1="-27" x1="64.5">
   <stop id="stop3720" style="stop-color:#fff" offset="0"/>
   <stop id="stop3722" style="stop-color:#f0f0f0" offset="1"/>
  </linearGradient>
  <linearGradient id="linearGradient2407" y2="5.4676" gradientUnits="userSpaceOnUse" x2="63.397" gradientTransform="matrix(5.6434 0 0 5.6429 -286.51 19.309)" y1="-12.489" x1="63.397">
   <stop id="stop4875" style="stop-color:#fff" offset="0"/>
   <stop id="stop4877" style="stop-color:#fff;stop-opacity:0" offset="1"/>
  </linearGradient>
  <radialGradient id="radialGradient2410" gradientUnits="userSpaceOnUse" cy="3.99" cx="23.896" gradientTransform="matrix(0 6.1021 -8.0553 0 96.659 -202.26)" r="20.397">
   <stop id="stop3244" style="stop-color:#f8b17e" offset="0"/>
   <stop id="stop3246" style="stop-color:#e35d4f" offset=".26238"/>
   <stop id="stop3248" style="stop-color:#c6262e" offset=".66094"/>
   <stop id="stop3250" style="stop-color:#690b54" offset="1"/>
  </radialGradient>
  <linearGradient id="linearGradient2412" y2="3.0816" gradientUnits="userSpaceOnUse" x2="18.379" gradientTransform="matrix(2.5569 0 0 2.5568 3.1524 -61.865)" y1="44.98" x1="18.379">
   <stop id="stop2492" style="stop-color:#791235" offset="0"/>
   <stop id="stop2494" style="stop-color:#dd3b27" offset="1"/>
  </linearGradient>
  <radialGradient id="radialGradient3765" gradientUnits="userSpaceOnUse" cx="62.625" cy="4.625" r="10.625" gradientTransform="matrix(5.7751 0 0 2.0086 -297.14 30.223)">
   <stop id="stop8840" offset="0"/>
   <stop id="stop8842" style="stop-opacity:0" offset="1"/>
  </radialGradient>
 </defs>
 <metadata id="metadata3772">
  <rdf:RDF>
   <cc:Work rdf:about="">
    <dc:format>image/svg+xml</dc:format>
    <dc:type rdf:resource="http://purl.org/dc/dcmitype/StillImage"/>
    <dc:title/>
   </cc:Work>
  </rdf:RDF>
 </metadata>
 <g id="layer1" transform="translate(0,64)">
  <path id="path8836" style="opacity:.5;fill-rule:evenodd;fill:url(#radialGradient3765)" d="m125.88 39.513c0 11.786-27.472 21.341-61.36 21.341s-61.36-9.5548-61.36-21.341 27.472-21.341 61.36-21.341 61.36 9.5548 61.36 21.341z"/>
  <path id="path2555" style="stroke-linejoin:round;stroke:url(#linearGradient2412);stroke-linecap:round;stroke-width:.99915;fill:url(#radialGradient2410)" d="m64.519-52.516c-28.702 0-52.018 23.315-52.018 52.014 0 28.7 23.316 52.014 52.018 52.014s52.018-23.315 52.018-52.014c0-28.7-23.316-52.014-52.018-52.014z"/>
  <path id="path8655" style="opacity:.4;stroke:url(#linearGradient2407);stroke-width:.99915;fill:none" d="m115.5-0.504c0 27.257-22.3 51.241-50.98 51.004-29.513-0.245-50.674-23.749-51.02-51.004-0.356-28.087 23.287-51.115 51.02-50.996 27.255 0.117 50.98 21.96 50.98 50.996z"/>
  <path id="path3256-4" style="fill:#a9262e;fill-rule:evenodd" d="m47.048-28-8.048 8.048 16.605 16.52c0.51012 0.51655 0.51012 1.3472 0 1.8638l-16.605 16.52 8.048 8.048 16.52-16.52c0.51655-0.51012 1.3472-0.51012 1.8638 0l16.52 16.52 8.048-8.048-16.52-16.52c-0.51012-0.51654-0.51012-1.3472 0-1.8638l16.52-16.52-8.0482-8.0482-16.52 16.52c-0.51655 0.51012-1.3472 0.51012-1.8638 0l-16.52-16.52z"/>
  <path id="path3256" style="fill:url(#linearGradient3724);fill-rule:evenodd" d="m47.048-27-8.048 8.048 16.605 16.52c0.51012 0.51655 0.51012 1.3472 0 1.8638l-16.605 16.52 8.048 8.048 16.52-16.52c0.51655-0.51012 1.3472-0.51012 1.8638 0l16.52 16.52 8.048-8.048-16.52-16.52c-0.51012-0.51654-0.51012-1.3472 0-1.8638l16.52-16.52-8.0482-8.0482-16.52 16.52c-0.51655 0.51012-1.3472 0.51012-1.8638 0l-16.52-16.52z"/>
 </g>
</svg>
